X:146
T:Poor Little Sweep. Le4.146
Q:1/4=100
L:1/8
B:L.Leadley MS#4 c1850
Z:vmp.Mike Hicken 2016 www.village-music-project.org.uk
N: * In the original this bar is shown as |G BG/ d2 c/B/A/G/|  It has been changed to give the correct bar length.
N: ** In the original this note is shown as a crotchet. It has been changed to give the correct bar length.
M:C
K:G
D D|"*"G2 B>G d2 (c/B/)(A/G/)|GFGB BA zd|g2 fe edBG|GFGB BA z"**"B!segno!||
cAFD GBdB|cAFD d2 ef|g2 fe edBG|eddF A2 !segno!|]

